images/feedback/question.svg

<svg width="164" height="164" viewBox="0 0 164 164" fill="none" xmlns="http://www.w3.org/2000/svg">
<path d="M92.25 112.75H61.5C61.5 82 77.9 71.75 89.175 65.6C93.275 63.55 96.35 61.5 98.4 59.45C103.525 54.325 101.475 47.15 100.45 45.1C97.375 37.925 90.2 30.75 76.875 30.75C55.35 30.75 51.25 50.225 51.25 54.325L20.5 50.225C22.55 32.8 37.925 0 76.875 0C100.45 0 120.95 13.325 129.15 32.8C136.325 50.225 133.25 68.675 120.95 80.975C115.825 86.1 109.675 89.175 104.55 92.25C95.325 97.375 92.25 102.5 92.25 112.75Z" fill="#3D4F64" fill-opacity="0.15"/>
<path d="M97.375 143.5C97.375 154.826 88.2013 164 76.875 164C65.5487 164 56.375 154.826 56.375 143.5C56.375 132.174 65.5487 123 76.875 123C88.2013 123 97.375 132.174 97.375 143.5Z" fill="#3D4F64" fill-opacity="0.15"/>
</svg>

<svg width="164" height="164" fill="none" xmlns="http://www.w3.org/2000/svg"><path d="M92.25 112.75H61.5c0-30.75 16.4-41 27.67-47.15 4.1-2.05 7.18-4.1 9.23-6.15 5.13-5.13 3.07-12.3 2.05-14.35-3.08-7.18-10.25-14.35-23.58-14.35-21.52 0-25.62 19.48-25.62 23.58l-30.75-4.1C22.55 32.8 37.92 0 76.88 0c23.57 0 44.07 13.32 52.27 32.8 7.17 17.43 4.1 35.88-8.2 48.17-5.13 5.13-11.28 8.2-16.4 11.28-9.22 5.13-12.3 10.25-12.3 20.5ZM97.38 143.5a20.5 20.5 0 1 1-41 .01 20.5 20.5 0 0 1 41-.01Z" fill="#3D4F64" fill-opacity=".15"/></svg>
